X: 1
T: Sonny Murray's
R: hornpipe
M: 4/4
L: 1/8
K: Dmaj
FG|ABAF DEFG|AG (3FED =c2 (3AB^c|dcde fdAF|G2GF G2FG|
ABAF DEFG|AG (3FED =c2 (3AB^c|dcde fdAG|F2D2 D2:||
de|f2fd ecAF|Gggf g2fg|a2ab agec|dcAF G2FG|
ABAF DEFG|AG (3FED =c2 (3AB^c|dcde fdAG|F2D2 D2 :||


Tune 309	Setting 26285

